resources/icons/16px/tank.svg

<svg width="16" height="16" viewBox="0 0 16 16" xmlns="http://www.w3.org/2000/svg">
<path fill-rule="evenodd" clip-rule="evenodd" d="M3.7 3.4C3.88885 3.14819 4.18524 3 4.5 3H7H9.58579C9.851 3 10.1054 3.10536 10.2929 3.29289L11 4V4.00003H14C14.5523 4.00003 15 4.44775 15 5.00003C15 5.55232 14.5523 6.00003 14 6.00003H11V6.99998H13.5C14.8807 6.99998 16 8.11927 16 9.49998C16 10.8807 14.8807 12 13.5 12H2.5C1.11929 12 0 10.8807 0 9.49998C0 8.11927 1.11929 6.99998 2.5 6.99998H3V4.66667C3 4.4503 3.07018 4.23976 3.2 4.06667L3.7 3.4ZM2.5 8.99998H13.5C13.7761 8.99998 14 9.22384 14 9.49998C14 9.77613 13.7761 9.99998 13.5 9.99998H2.5C2.22386 9.99998 2 9.77613 2 9.49998C2 9.22384 2.22386 8.99998 2.5 8.99998Z"/>
</svg>

<svg xmlns="http://www.w3.org/2000/svg" viewBox="0 0 16 16">
  <path d="M3.7 3.4a1 1 0 0 1 .8-.4h5.086a1 1 0 0 1 .707.293L11 4h3a1 1 0 1 1 0 2h-3v1h2.5a2.5 2.5 0 0 1 0 5h-11a2.5 2.5 0 0 1 0-5H3V4.667a1 1 0 0 1 .2-.6zM2.5 9h11a.5.5 0 0 1 0 1h-11a.5.5 0 1 1 0-1"/>
</svg>
